X: 415
T:Vous ne l'aurez pas
N: Derived from Jos3014-Vous_ne_laurez_pas.krn
C: Josquin des Prez
%%abc-version 2.0
%%abcx-abcm2ps-target-version 5.9.1 (29 Sep 2008)
%%abc-creator hum2abc beta
%%abcx-conversion-date 2019/02/12 16:15:55
%%abc-edited-by Jesse Rodin
%%abc-edited-by Will Watson 09/09/2011
%%abcx-initial-encoding-date 2011/09/09/
%%humdrum-veritas 1379492477
%%humdrum-veritas-data 3442576219
%%linebreak <none>
%%barnumbers 0
L: 1/4
M: 2/1
Q: 1/2=120
V: 1 clef=treble
V: 2 clef=treble-8
V: 3 clef=treble-8
V: 4 clef=treble-8
V: 5 clef=bass
V: 6 clef=bass
K: C
[V:1] z8 | 
[V:2] z8 | 
[V:3] A4A2A2 | 
[V:4] z8 | 
[V:5] z2A,4A,2 | 
[V:6] z8 | 
[V:1] A4A2A2 | 
[V:2] z8 | 
[V:3] D2d2c2d2- | 
[V:4] z8 | 
[V:5] A,2D,2A,2D,2 | 
[V:6] z8 | 
[V:1] D4A4 | 
[V:2] z8 | 
[V:3] d2cBA4 | 
[V:4] z8 | 
[V:5] G,4F,4 | 
[V:6] z8 | 
[V:1] G2A4GF | 
[V:2] z8 | 
[V:3] z2A2d4 | 
[V:4] z8 | 
[V:5] z2D,2D,4 | 
[V:6] z8 | 
[V:1] E4z2E2 | 
[V:2] z8 | 
[V:3] c4z2A2 | 
[V:4] z8 | 
[V:5] A,,8 | 
[V:6] A,4A,2A,2 | 
[V:1] E2F2E2F2- | 
[V:2] z8 | 
[V:3] c2F2c2F2 | 
[V:4] A4A2A2 | 
[V:5] z8 | 
[V:6] A,,2D,2C,2D,2- | 
[V:1] F2EDC4 | 
[V:2] z8 | 
[V:3] z8 | 
[V:4] D4A4 | 
[V:5] z8 | 
[V:6] D,2C,B,,A,,4 | 
[V:1] z8 | 
[V:2] z8 | 
[V:3] z2c2A3B | 
[V:4] G2A4GF | 
[V:5] z8 | 
[V:6] z2A,,2D,4 | 
[V:1] z4z2c2 | 
[V:2] z8 | 
[V:3] c8 | 
[V:4] E8 | 
[V:5] z2E,2E,2E,2 | 
[V:6] C,8 | 
[V:1] c2c2B2c2- | 
[V:2] e4e2e2 | 
[V:3] z8 | 
[V:4] z8 | 
[V:5] A,,2A,2G,2A,2- | 
[V:6] z8 | 
[V:1] c2BAG4 | 
[V:2] A4e4 | 
[V:3] z8 | 
[V:4] z8 | 
[V:5] A,2G,F,E,4 | 
[V:6] z8 | 
[V:1] z2G2E3F | 
[V:2] d2e4dc | 
[V:3] z8 | 
[V:4] z8 | 
[V:5] z2E,2A,4 | 
[V:6] z8 | 
[V:1] G8 | 
[V:2] B8 | 
[V:3] z2d2d2d2 | 
[V:4] z4G4 | 
[V:5] G,8 | 
[V:6] G,,4G,,2G,,2 | 
[V:1] z8 | 
[V:2] z8 | 
[V:3] f6ed | 
[V:4] A4B4 | 
[V:5] z8 | 
[V:6] D,4D,4 | 
[V:1] z8 | 
[V:2] z8 | 
[V:3] e2ABcde2- | 
[V:4] c3BA2G2 | 
[V:5] z8 | 
[V:6] C,2F,,G,,A,,B,,C,2 | 
[V:1] z8 | 
[V:2] z8 | 
[V:3] e2d3^c^cB | 
[V:4] F2D2E4 | 
[V:5] z8 | 
[V:6] D,2B,,2A,,4 | 
[V:1] z2A2A2A2 | 
[V:2] z4d4 | 
[V:3] d8 | 
[V:4] D8 | 
[V:5] z2D,2D,2D,2 | 
[V:6] D,8 | 
[V:1] c6BA | 
[V:2] e4f2g2 | 
[V:3] z8 | 
[V:4] z8 | 
[V:5] A,4A,4 | 
[V:6] z8 | 
[V:1] B2EFGAB2- | 
[V:2] g3fe2d2 | 
[V:3] z8 | 
[V:4] z8 | 
[V:5] G,2C,D,E,F,G,2 | 
[V:6] z8 | 
[V:1] BAA4^G2 | 
[V:2] c2A2B4 | 
[V:3] z8 | 
[V:4] z8 | 
[V:5] A,2F,2E,4 | 
[V:6] z8 | 
[V:1] A8 | 
[V:2] A8 | 
[V:3] z4z2D2 | 
[V:4] z8 | 
[V:5] A,8 | 
[V:6] z2D,2D,2D,2 | 
[V:1] z8 | 
[V:2] z8 | 
[V:3] D2D2F4 | 
[V:4] z2D2D2D2 | 
[V:5] z8 | 
[V:6] F,4z2D,2 | 
[V:1] z8 | 
[V:2] z8 | 
[V:3] z4z2F2- | 
[V:4] F3GABc2 | 
[V:5] z8 | 
[V:6] D,2D,2F,3E, | 
[V:1] z8 | 
[V:2] z8 | 
[V:3] F2E2D4 | 
[V:4] B2A4^G2 | 
[V:5] z8 | 
[V:6] D,2C,2B,,4 | 
[V:1] z8 | 
[V:2] z8 | 
[V:3] E4z2A2 | 
[V:4] A8 | 
[V:5] z2A,2A,2A,2 | 
[V:6] A,,8- | 
[V:1] A2A2A2c2- | 
[V:2] z2A2A2A2 | 
[V:3] A2A2c4 | 
[V:4] z8 | 
[V:5] C4z2A,2 | 
[V:6] A,,8 | 
[V:1] c2BAG4 | 
[V:2] c3defg2 | 
[V:3] z4z2c2- | 
[V:4] z8 | 
[V:5] A,2A,2C3B, | 
[V:6] z8 | 
[V:1] z2G2A4 | 
[V:2] f2e4d2 | 
[V:3] c2B2A4 | 
[V:4] z8 | 
[V:5] A,2G,2F,4 | 
[V:6] z8 | 
[V:1] G3EE4 | 
[V:2] e8 | 
[V:3] B2e2c2e2- | 
[V:4] z4A4 | 
[V:5] E,8 | 
[V:6] z4A,,4 | 
[V:1] z2B2B2B2 | 
[V:2] z8 | 
[V:3] e2dcB4 | 
[V:4] G4G4 | 
[V:5] z8 | 
[V:6] E,4E,4 | 
[V:1] c6c2 | 
[V:2] z8 | 
[V:3] A4z2G2 | 
[V:4] A6E2 | 
[V:5] z4E4 | 
[V:6] A,,2A,,2C,4 | 
[V:1] B4A4 | 
[V:2] z8 | 
[V:3] G2G2A4 | 
[V:4] G4F4 | 
[V:5] D4D4 | 
[V:6] G,,4D,4 | 
[V:1] G2c4c2 | 
[V:2] z4e4 | 
[V:3] E8 | 
[V:4] E8 | 
[V:5] E6E,2 | 
[V:6] z2A,,2C,4 | 
[V:1] B3GA4 | 
[V:2] d4d4 | 
[V:3] z8 | 
[V:4] z8 | 
[V:5] G,4F,4 | 
[V:6] G,,4D,4 | 
[V:1] G2C2G4 | 
[V:2] e6B2 | 
[V:3] z4G4 | 
[V:4] z8 | 
[V:5] E,8 | 
[V:6] z2A,,2E,4 | 
[V:1] F4E3F | 
[V:2] d4c4 | 
[V:3] A4A4 | 
[V:4] z8 | 
[V:5] z8 | 
[V:6] D,3C,A,,4 | 
[V:1] G8 | 
[V:2] B8 | 
[V:3] E8 | 
[V:4] z2G2G2G2 | 
[V:5] z4z2E2 | 
[V:6] z2E,2E,2E,2 | 
[V:1] z8 | 
[V:2] z8 | 
[V:3] A2z2z4 | 
[V:4] A2DEFGA2- | 
[V:5] C2D2A,2F2 | 
[V:6] A,,2F,3E,D,2 | 
[V:1] z4z2E2 | 
[V:2] z8 | 
[V:3] A4A2A2 | 
[V:4] A2GFE4 | 
[V:5] E2D4^C2 | 
[V:6] C,2D,2A,,4 | 
[V:1] F2D2A4 | 
[V:2] z8 | 
[V:3] F4z2F2 | 
[V:4] D8- | 
[V:5] D4z2A,2 | 
[V:6] D,4z2D,2 | 
[V:1] z4z2A2 | 
[V:2] z2d2d2d2 | 
[V:3] G2G2F4 | 
[V:4] D8 | 
[V:5] _B,2B,2A,4 | 
[V:6] G,,2G,,2D,4 | 
[V:1] G2A2E2c2 | 
[V:2] e2ABcde2- | 
[V:3] E2D2A4 | 
[V:4] z8 | 
[V:5] z4z2A,2 | 
[V:6] z4z2A,,2 | 
[V:1] B2A4^G2 | 
[V:2] e2dcB4 | 
[V:3] E8 | 
[V:4] z2E2E2E2 | 
[V:5] G,2A,2E,2E2 | 
[V:6] E,2A,,2E,4 | 
[V:1] A8- | 
[V:2] A8- | 
[V:3] z4z2A2 | 
[V:4] F2DEFGA2- | 
[V:5] C2D2A,2F2 | 
[V:6] z2F,3E,D,2 | 
[V:1] A8- | 
[V:2] A8- | 
[V:3] c2A2c2C2 | 
[V:4] A2GFE4 | 
[V:5] E2D3^CC2 | 
[V:6] C,2D,2A,,4 | 
[V:1] A8- | 
[V:2] A8- | 
[V:3] F3GA4 | 
[V:4] D8- | 
[V:5] D8- | 
[V:6] D,8- | 
[V:1] A8 |]  
[V:2] A8 |]  
[V:3] F8 |]  
[V:4] D8 |]  
[V:5] D8 |]  
[V:6] D,8 |]  



